!!!COM:	Bach, Johann Sebastian
!!!CDT:	1685/02/21/-1750/07/28/
!!!OTL@@DE:	Werde munter, mein Gem&uuml;te
!!!SCT:	BWV 55/5
!!!PC#:	95
!!!AGN:	chorale
**kern	**kern	**kern	**kern
*ICvox	*ICvox	*ICvox	*ICvox
*Ibass	*Itenor	*Ialto	*Isoprn
*I"Bass	*I"Tenor	*I"Alto	*I"Soprano
*>[A,A,B]	*>[A,A,B]	*>[A,A,B]	*>[A,A,B]
*>norep[A,B]	*>norep[A,B]	*>norep[A,B]	*>norep[A,B]
*>A	*>A	*>A	*>A
*clefF4	*clefGv2	*clefG2	*clefG2
*k[b-e-]	*k[b-e-]	*k[b-e-]	*k[b-e-]
*B-:	*B-:	*B-:	*B-:
*M4/4	*M4/4	*M4/4	*M4/4
*met(c)	*met(c)	*met(c)	*met(c)
*MM100	*MM100	*MM100	*MM100
=1-	=1-	=1-	=1-
8B-L	4B-	4f	4dd
8AJ	.	.	.
4G	4B-	8gL	4ee-
.	.	8aJ	.
4D	8B-L	4b-	4ff
.	8cJ	.	.
4G	4d	4b-	4ff
=2	=2	=2	=2
4C	4e-	8b-L	4ee-
.	.	8aJ	.
8DL	4f	4b-	4dd
8E-J	.	.	.
4F	4f	4a	4cc
4F;	4f;	4a;	4cc;
=3	=3	=3	=3
4BB-	4f	4b-	4dd
4C	4c	8aL	4ee-
.	.	8gJ	.
4D	8cL	4f	4ff
.	8AJ	.	.
8GL	4B-	4g	8ee-L
8FJ	.	.	8ddJ
=4	=4	=4	=4
4E-	4B-	4g	4.cc
4F	4A	4f	.
.	.	.	8b-
2BB-;	2d;	2f;	2b-;
=5:|!	=5:|!	=5:|!	=5:|!
*>B	*>B	*>B	*>B
8FL	4A	4f	4cc
8E-J	.	.	.
4D	4B	4f	4dd
8CL	4c	8e-L	4ee-
8D	.	8fJ	.
8E-	4c	4g	4ee-
8CJ	.	.	.
=6	=6	=6	=6
4F	4c	4a-	4dd
4G	4B	8gL	4dd
.	.	8fJ	.
2C;	2G;	2e-;	2cc;
=7	=7	=7	=7
4c	4c	4g	4ee-
8B-L	4d	4b-	4ff
8A-J	.	.	.
8GL	4e-	8b-L	4gg
8FJ	.	8a-J	.
4E-	4e-	8b-L	4gg
.	.	8gJ	.
=8	=8	=8	=8
4A-	4e-	4cc	4ff
4B-	4d	8b-L	4ff
.	.	8a-J	.
2E-;	2B-;	2g;	2ee-;
=9	=9	=9	=9
4G	4B-	4g	4dd
8FL	4B-	4g	4ee-
8E-J	.	.	.
4D	4B-	8fL	4ff
.	.	8e-J	.
4G	4B-	4d	4ff
=10	=10	=10	=10
4C	8B-L	4e-	4ee-
.	8AJ	.	.
8DL	4B-	8fL	4dd
8E-J	.	8gJ	.
4F	4f	4a	4cc
4F;	4f;	4a;	4cc;
=11	=11	=11	=11
4BB-	4f	4b-	4dd
4C	4e-	8aL	4ee-
.	.	8gJ	.
4D	8dL	4f	4ff
.	8cJ	.	.
8GL	4B-	4g	8ee-L
8FJ	.	.	8ddJ
=12	=12	=12	=12
4E-	4B-	4g	4.cc
4F	8AL	4f	.
.	8e-J	.	8b-
4BB-	4d	4f	4b-
4BB-;	4d;	4f;	4b-;
==	==	==	==
*-	*-	*-	*-
!!!hum2abc: -Q ''
!!!title: @{PC#}. @{OTL@@DE}
!!!YOR1: 371 vierstimmige Choralges&auml;nge von Johann Sebastian Bach, 
!!!YOR2: 4th ed. by Alfred D&ouml;rffel (Leipzig: Breitkopf und H&auml;rtel, 
!!!YOR2: c.1875). 178 pp. Plate "V.A.10".  reprint: J.S. Bach, 371 Four-Part 
!!!YOR4: Chorales (New York: Associated Music Publishers, Inc., c.1940).
!!!SMS: B&H, 4th ed, Alfred D&ouml;rffel, c.1875, plate V.A.10
!!!EED:  Craig Stuart Sapp
!!!EEV:  2009/05/22
